!!!!SEGMENT: pl-wtm--r-1226--015_lodwigowski-edward-stefan--te-brzoz-kilka-ten-bieg-wody.krn
!!!cenid: 18xx:1931
!!!COM: Łodwigowski, Edward Stefan
!!!COM-rismid: pe30111147
!!!CDT: 1815/08/14-1895/11/12
!!!CNT: Polish
!!!OTL: Te brzoz kilka, ten bieg wody
!!!PDT:
!!!AGN:
!!!SMS-siglum: PL-Wtm
!!!SMS-shelfmark: R 1226
!!!SMS-shelfwork: 015 W
!!!SMS-variant:
!!!SMS-altvar:
!!!NIFC-rismid: 1001084003
!!!URL-scan: http://repozytorium.nifc.pl/skany/pl-wtm-nut--r1226-1227
!!!ONB-nifc: UWAGA: No. 63
!!!OMD: Andantino
**kern	**fing	**kern	**fing	**dynam
*part1	*part1	*part1	*part1	*part1
*staff2	*staff2	*staff1	*staff1	*
*I"Fortepian	*	*I"Fortepian	*	*
*clefF4	*	*clefG2	*	*
*k[b-e-a-]	*	*k[b-e-a-]	*	*
*E-:	*	*E-:	*	*
*M4/4	*	*M4/4	*	*
*met(c)	*	*met(c)	*	*
*all\right	*	*all\right	*	*
=1	=1	=1	=1	=1
*^	*	*	*	*
*2\right	*2\right	*below	*	*	*
!	!	!	!LO:TX:Bi:t=No 63.	!	!
!	!LO:N:vis=2	!	!LO:TX:i:t=Te brzóz kilka, ten bieg wody. P. L. P	!	!LO:DY:rj
2E-/	8E-\L	4	(4.b-\	2	p
.	(>8B-\	.	.	.	.
.	8G\	.	.	.	.
.	8B-\J)	.	8ee-\)	5	.
!	!LO:N:vis=2	!	!	!	!
2E-/	8E-\L	.	(4ee-\	.	.
.	(>8B-\	.	.	.	.
.	8G\	.	4g/)	.	.
.	8B-\J)	.	.	.	.
=2	=2	=2	=2	=2	=2
!	!LO:N:vis=2	!	!	!	!
2D/	8D\L	.	(4.b-/	.	.
.	(>8B-\	.	.	.	.
.	8A-\	.	.	.	.
.	8B-\J)	.	8a-/)	.	.
!	!LO:N:vis=2	!	!	!	!
2D/	8D\L	.	(4a-/	.	.
.	(>8B-\	.	.	.	.
.	8A-\	.	4f/)	.	.
.	8B-\J)	.	.	.	.
=3	=3	=3	=3	=3	=3
!	!LO:N:vis=2	!	!	!	!
2BB-/	8BB-\L	.	(4dd\	5	.
.	(>8A-\	.	.	.	.
.	8F\	.	4b-\)	3	.
.	8A-\J)	.	.	.	.
!	!LO:N:vis=2	!	!	!	!
2BB-/	8BB-\L	.	8r	.	.
.	(>8A-\	.	(8b-\L	2	.
.	8F\	.	8cc\	1	.
.	8A-\J)	.	8dd\J	.	.
=4	=4	=4	=4	=4	=4
!	!LO:N:vis=2	!	!	!	!
*	*	*	*	*below	*
2E-/	8E-\L	.	8ee-|\)	.	.
.	(>8B-\	.	(4b-^\	3	.
.	8G\	.	.	.	.
.	8B-\J)	.	8a-\)	.	.
!	!LO:N:vis=2	!	!	!	!
2E-/	8E-\L	.	(4a-\	.	.
.	(>8B-\	.	.	.	.
.	8G\	.	8g\)	.	.
.	8B-\J)	.	8r	.	.
=5	=5	=5	=5	=5	=5
*	*	*above	*	*above	*
!	!LO:N:vis=2	!	!	!	!
2A-/	8A-\L	4	8cc\L	1	<
.	8e-\	.	(8ee-\	.	.
.	8c\	.	8dd\	.	.
.	8e-\J	.	8ee-\J	.	.
!	!LO:N:vis=2	!	!	!	!
2A-/	8A-\L	.	8ff\L	.	[
.	8e-\	.	8ee-\	.	>
.	8c\	.	8dd\	.	.
.	8e-\J	.	8cc\J)	.	]
!!LO:LB:g=original
=6	=6	=6	=6	=6	=6
!	!LO:N:vis=2	!	!	!	!
2E-/	8E-\L	.	(4cc\	3	.
.	8B-\	.	.	.	.
.	8G\	.	4b-\)	.	.
.	8B-\J	.	.	.	.
!	!LO:N:vis=2	!	!	!	!
2E-/	8E-\L	.	8r	.	.
.	8B-\	.	(8b-/L	4	.
.	8G\	.	8g/	2	.
.	8B-\J	.	8e-/J)	1	.
=7	=7	=7	=7	=7	=7
!	!LO:N:vis=2	!	!	!	!
2D/	8D\L	.	(8.b-/L	4	.
.	8B-\	.	.	.	.
.	.	.	16a-/Jk	.	.
.	8A-\	.	4f/)	.	.
.	8B-\J	.	.	.	.
!	!LO:N:vis=2	!	!	!	!
2D/	8D\L	.	8r	.	.
.	8B-\	.	(8f/	.	.
.	8A-\	.	8.b-/L	.	.
.	8B-\J	.	.	.	.
.	.	.	16a-/Jk)	.	.
=8	=8	=8	=8	=8	=8
!	!LO:N:vis=2	!	!	!	!
2E-/	8E-\L	.	(4a-/	2	.
.	8B-\	.	.	.	.
.	8G\	.	4g/)	1	.
.	8B-\J	.	.	.	.
!	!LO:N:vis=2	!	!	!	!
2E-/	8E-\L	.	2r	.	.
.	8B-\	.	.	.	.
.	8G\	.	.	.	.
.	8B-\J	.	.	.	.
=9	=9	=9	=9	=9	=9
!	!LO:N:vis=2	!	!	!	!
2A-/	8A-\L	4	8cc\L	1	.
.	8e-\	.	(8ee-\	.	<
.	8c\	.	8dd\	.	.
.	8e-\J	.	8ee-\J	.	[
!	!LO:N:vis=2	!	!	!	!
2A-/	8A-\L	.	8ff\L	.	.
.	8e-\	.	8ee-\	.	>
.	8c\	.	8dd\	.	.
.	8e-\J	.	8cc\J)	.	]
=10	=10	=10	=10	=10	=10
!	!LO:N:vis=2	!	!	!	!
2E-/	8E-\L	.	4cc\	.	.
.	8B-\	.	.	.	.
.	8G\	.	4b-\	.	.
.	8B-\J	.	.	.	.
!	!LO:N:vis=2	!	!	!	!
2E-/	8E-\L	.	8r	.	.
.	.	.	8qcc/	5	.
.	8B-\	.	(8b-/L	4	.
.	8G\	.	8g/	.	.
.	8B-\J	.	8e-/J)	.	.
=11	=11	=11	=11	=11	=11
!	!LO:N:vis=2	!	!	!	!
2BB-/	8BB-\L	.	(8.b-/L	.	.
.	8A-\	.	.	.	.
.	.	.	16a-/Jk	.	.
.	8D\	.	4f/)	.	.
.	8A-\J	.	.	.	.
!	!LO:N:vis=2	!	!	!	!
2BB-/	8BB-\L	.	8r	.	.
.	8A-\	.	(8f/	.	.
.	8F\	.	8.b-/L	.	.
.	8A-\J	.	.	.	.
.	.	.	16d/Jk)	.	.
!!LO:LB:g=original
=12	=12	=12	=12	=12	=12
!	!LO:N:vis=2	!	!	!	!
2E-/	8E-\L	.	(4f/	.	.
.	8B-\	.	.	.	.
.	8G\	.	4e-/)	.	.
.	8B-\J	.	.	.	.
2ryy	8E-\L	.	2r	.	.
.	8B-\	.	.	.	.
.	8G\	.	.	.	.
.	8E-\J	.	.	.	.
=13	=13	=13	=13	=13	=13
*	*	*below	*	*	*
!	!LO:N:vis=2	!	!LO:TX:b:t=doloroso	!	!
2C/	8C\L	5	4cc\	.	.
.	8En\	.	.	.	.
.	8G\	.	8cc\L	.	.
.	8B-\J	.	8cc\J	.	.
!	!LO:N:vis=2	!	!	!	!
2E/	8E\L	5	(8cc\L	.	.
.	8G\	.	8b-\	.	.
.	8B-\	.	8a-\	.	.
.	8c\J	.	8g\J)	.	.
=14	=14	=14	=14	=14	=14
!	!LO:N:vis=2	!	!	!	!
2F/	8F\L	4	(4b-\	.	.
.	8c\	.	.	.	.
.	8A-\	.	4a-\)	.	.
.	8c\J	.	.	.	.
!	!LO:N:vis=2	!	!	!	!
2F/	8F\L	.	8r	.	.
.	8c\	.	(8cc\	.	.
.	8A-\	.	8a-/L	.	.
.	8c\J	.	8f/J)	.	.
=15	=15	=15	=15	=15	=15
!	!LO:N:vis=2	!	!	!	!
2C/	8C\L	.	(4f/	2	.
.	8B-\	.	.	.	.
.	8G\	.	4en/)	.	.
.	8B-\J	.	.	.	.
!	!LO:N:vis=2	!	!	!	!
2C/	8C\L	.	8r	.	.
.	8B-\	.	(8dd-X\	4	.
.	8En\	.	8.cc\L	.	.
.	8B-\J	.	.	.	.
.	.	.	16b-\Jk)	.	.
=16	=16	=16	=16	=16	=16
!	!LO:N:vis=2	!	!	!	!
2F/	8F\L	5	(4b-\	3	.
.	8d-X\	2	.	.	.
.	8c\	1	4a-\)	.	.
.	8A-\J	.	.	.	.
2ryy	8F\L	5	4r	.	.
.	8A-\	3	.	.	.
.	8F\	1	8r	.	.
.	8E-\J	4	8an\	1	.
=17	=17	=17	=17	=17	=17
!	!LO:N:vis=2	!	!	!	!
2D/	8D\L	.	4b-\	.	.
.	8B-\	.	.	.	.
.	8A-\	.	4b-\	.	.
.	8B-\J	.	.	.	.
2ryy	8BB-\L	.	8r	.	.
.	8B-\	.	(8b-\L	2	.
.	8A-\	.	8cc\	.	.
.	8B-\J	.	8dd\J)	.	.
!!LO:LB:g=original
=18	=18	=18	=18	=18	=18
!	!LO:N:vis=2	!	!	!	!
2E-/	8E-\L	.	4ee-\	5	.
.	8B-\	.	.	.	.
.	8G\	.	([4b-/	2	.
.	8B-\J	.	.	.	.
!	!LO:N:vis=2	!	!	!	!
2E-/	8E-\L	.	8b-/L]	.	.
.	8B-\	.	8g/	.	.
.	8G\	.	8f/	3	.
.	8B-\J	.	8e-/J)	.	.
=19	=19	=19	=19	=19	=19
!	!LO:N:vis=2	!	!	!	!
2D/	8D\L	.	(8b-/L	5	.
.	8B-\	.	8a-/J	4	.
.	8A-\	.	2f/)	1	.
.	8B-\J	.	.	.	.
2ryy	8BB-\L	.	.	.	.
.	8B-\	.	.	.	.
.	8A-\	.	(8.b-/L	.	.
.	8B-\J	.	.	.	.
.	.	.	16a-/Jk)	.	.
=20	=20	=20	=20	=20	=20
*	*	*above	*	*	*
!	!LO:N:vis=2	!	!	!	!
2E-/	8E-\L	4	4a-/	2	.
.	8B-\	.	.	.	.
.	8G\	.	4g/	1	.
.	8B-\J	.	.	.	.
!	!LO:N:vis=2	!	!	!	!
2E-/	8E-\L	.	4r	.	.
.	8B-\	.	.	.	.
.	8G\	.	8r	.	.
.	8B-\J	.	8bb-\	.	.
=21	=21	=21	=21	=21	=21
!	!LO:N:vis=2	!	!	!	!
2D/	8D\L	.	(4ccc\	.	.
.	8B-\	.	.	.	.
.	8A-\	.	4bb-\)	.	.
.	8B-\J	.	.	.	.
2ryy	8BB-\L	.	8r	.	.
.	8B-\	.	(8bb-\L	2	.
.	8A-\	.	8ccc\	1	<
.	8B-\J	.	8ddd\J	.	.
=22	=22	=22	=22	=22	=22
!	!LO:N:vis=2	!	!	!	!
2E-/	8E-\L	.	8eee-\L	.	.
.	8B-\	.	8ggg\J)	.	[
.	8G\	.	([4bb-\	2	.
.	8B-\J	.	.	.	.
!	!LO:N:vis=2	!	!	!	!
2E-/	8E-\L	.	8bb-\L]	.	.
.	.	.	.	.	>
.	8B-\	.	8gg\J	1	.
.	8G\	.	8.ff\L	3	.
.	8B-\J	.	.	.	.
.	.	.	16ee-\Jk)	.	]]
=23	=23	=23	=23	=23	=23
!	!LO:N:vis=2	!	!	!	!
2D/	8D\L	.	(8.bb-\L	5	.
.	8B-\	.	.	.	.
.	.	.	16aa-\Jk	.	.
.	8A-\	.	4.ff\)	.	.
.	8B-\J	.	.	.	.
2ryy	8BB-\L	.	.	.	.
.	8B-\	.	(8ff\	.	.
.	8A-\	.	8.bb-\L	5	.
.	8B-\J	.	.	.	.
.	.	.	16dd\Jk)	1	.
=24	=24	=24	=24	=24	=24
!	!LO:N:vis=2	!	!	!	!
2E-/	8E-\L	.	(4ff\	3	.
.	8B-\	.	.	.	.
*	*	*	*2\right	*	*
.	8G\	.	2ee-\)	2	.
.	8B-\J	.	.	.	.
2ryy	4E-\	.	.	.	.
.	4r	.	4r	.	.
*v	*v	*	*	*	*
==	==	==	==	==
*-	*-	*-	*-	*-
!!!system-decoration: {p1}
!!!RDF**kern: > = above
!!!RDF**kern: < = below
!!!RDF**kern: | = vertical stroke
!!!ENC: Andrzej Kubiczek
!!!END: 2021-05-02
!!!ENC: Andrzej Gręziak
!!!END: 2021-04-17
